assets/images/virus-box-1.svg

<svg xmlns="http://www.w3.org/2000/svg" xmlns:xlink="http://www.w3.org/1999/xlink" viewBox="0 0 276 276" xmlns:v="https://vecta.io/nano"><style><![CDATA[.H{enable-background:new}.I{opacity:.4}.J{fill:#b4b4b4}.K{opacity:.8}.L{opacity:.57}]]></style><g class="J K"><use xlink:href="#B"/><use xlink:href="#B" class="H I"/><ellipse transform="matrix(.975 -.2224 .2224 .975 -.4126 24.7294)" cx="109.6" cy="14.2" rx="14.6" ry="7.7"/><ellipse transform="matrix(.975 -.2223 .2223 .975 -.1821 23.591)" cx="104.7" cy="12.6" rx="5.5" ry="2.9" class="H I"/></g><g class="J K"><use xlink:href="#C"/><use xlink:href="#C" class="H I"/><ellipse transform="matrix(.975 -.2224 .2224 .975 -53.4111 43.2691)" cx="165.4" cy="258.8" rx="14.6" ry="7.7"/><ellipse transform="matrix(.975 -.2223 .2223 .975 -54.2864 42.5099)" cx="161.7" cy="262.4" rx="5.5" ry="2.9" class="H I"/></g><g class="J K"><use xlink:href="#D"/><use xlink:href="#D" class="H I"/><ellipse transform="matrix(.975 -.2224 .2224 .975 -36.1786 7.5053)" cx="15.2" cy="164.4" rx="7.7" ry="14.6"/><ellipse transform="matrix(.975 -.2224 .2224 .975 -37.3075 7.26)" cx="13.6" cy="169.3" rx="2.9" ry="5.5" class="H I"/></g><g class="J K"><use xlink:href="#E"/><use xlink:href="#E" class="H I"/><ellipse transform="matrix(.975 -.2224 .2224 .975 -17.643 60.4854)" cx="259.8" cy="108.6" rx="7.7" ry="14.6"/><ellipse transform="matrix(.975 -.2223 .2223 .975 -18.3792 61.3535)" cx="263.4" cy="112.3" rx="2.9" ry="5.5" class="H I"/></g><g class="J K"><use xlink:href="#F"/><use xlink:href="#F" class="H I"/><ellipse transform="matrix(.5322 -.8466 .8466 .5322 -172.3493 173.3907)" cx="70.7" cy="242.7" rx="7.7" ry="14.6"/><ellipse transform="matrix(.5322 -.8466 .8466 .5322 -175.2131 177.5426)" cx="73.1" cy="247.3" rx="2.9" ry="5.5" class="H I"/></g><g class="J K"><use xlink:href="#G"/><use xlink:href="#G" class="H I"/><ellipse transform="matrix(.5322 -.8466 .8466 .5322 69.8653 187.1438)" cx="204.3" cy="30.4" rx="7.7" ry="14.6"/><ellipse transform="matrix(.5322 -.8466 .8466 .5322 72.233 191.5493)" cx="209.5" cy="30.4" rx="2.9" ry="5.5" class="H I"/></g><g class="J K"><use xlink:href="#H"/><use xlink:href="#H" class="H I"/><ellipse transform="matrix(.5322 -.8466 .8466 .5322 -58.0872 301.4223)" cx="243.7" cy="203.3" rx="14.6" ry="7.7"/><ellipse transform="matrix(.5322 -.8466 .8466 .5322 -53.9252 304.2357)" cx="248.3" cy="200.9" rx="5.5" ry="2.9" class="H I"/></g><g class="J K"><use xlink:href="#I"/><use xlink:href="#I" class="H I"/><ellipse transform="matrix(.5322 -.8466 .8466 .5322 -44.3896 59.099)" cx="31.3" cy="69.7" rx="14.6" ry="7.7"/><ellipse transform="matrix(.5322 -.8466 .8466 .5322 -39.9798 56.7676)" cx="31.4" cy="64.6" rx="5.5" ry="2.9" class="H I"/></g><g class="J K"><use xlink:href="#J"/><use xlink:href="#J" class="H I"/><ellipse transform="matrix(.8316 -.5553 .5553 .8316 -95.1275 150.7261)" cx="201" cy="232.2" rx="12.9" ry="6.8"/><ellipse transform="matrix(.8316 -.5553 .5553 .8316 -94.2756 153.1952)" cx="205.5" cy="232.1" rx="4.9" ry="2.6" class="H I"/></g><g class="J K"><use xlink:href="#K"/><use xlink:href="#K" class="H I"/><ellipse transform="matrix(.1785 -.9839 .9839 .1785 100.2333 176.4478)" cx="155.8" cy="28.2" rx="6.8" ry="12.9"/><ellipse transform="matrix(.1785 -.9839 .9839 .1785 100.4996 170.5738)" cx="152.4" cy="25.1" rx="2.6" ry="4.9" class="H I"/></g><g class="J K"><use xlink:href="#L"/><use xlink:href="#L" class="H I"/><ellipse transform="matrix(.8316 -.5553 .5553 .8316 -12.6255 47.8091)" cx="72.5" cy="44.7" rx="8.9" ry="4.7"/><ellipse transform="matrix(.8316 -.5553 .5553 .8316 -10.7898 48.0592)" cx="73.9" cy="41.8" rx="3.4" ry="1.8" class="H I"/></g><g class="J K"><use xlink:href="#M"/><use xlink:href="#M" class="H I"/><ellipse transform="matrix(.7356 -.6774 .6774 .7356 -125.3883 87.7983)" cx="49.8" cy="204.5" rx="4.7" ry="8.9"/><ellipse transform="matrix(.7356 -.6774 .6774 .7356 -125.5508 85.4784)" cx="46.7" cy="203.6" rx="1.8" ry="3.4" class="H I"/></g><g class="J K"><use xlink:href="#N"/><use xlink:href="#N" class="H I"/><ellipse transform="matrix(.8079 -.5893 .5893 .8079 1.4485 148.923)" cx="229.2" cy="72.2" rx="4.7" ry="8.9"/><ellipse transform="matrix(.8079 -.5893 .5893 .8079 1.2877 150.8609)" cx="232.1" cy="73.5" rx="1.8" ry="3.4" class="H I"/></g><g class="J K"><use xlink:href="#O"/><use xlink:href="#O" class="H I"/><ellipse transform="matrix(.1381 -.9904 .9904 .1381 -138.9049 331.9862)" cx="121.3" cy="245.8" rx="4.7" ry="8.9"/><ellipse transform="matrix(.1381 -.9904 .9904 .1381 -142.5834 330.1542)" cx="118.4" cy="247" rx="1.8" ry="3.4" class="H I"/></g><g class="J K"><use xlink:href="#P"/><use xlink:href="#P" class="H I"/><ellipse transform="matrix(.1909 -.9816 .9816 .1909 48.0173 369.4793)" cx="248.1" cy="155.6" rx="8.9" ry="4.7"/><ellipse transform="matrix(.1909 -.9816 .9816 .1909 45.9886 372.8711)" cx="249.2" cy="158.5" rx="3.4" ry="1.8" class="H I"/></g><g class="J K"><use xlink:href="#Q"/><use xlink:href="#Q" class="H I"/><ellipse transform="matrix(.1521 -.9884 .9884 .1521 -90.8349 123.6983)" cx="26.7" cy="114.8" rx="12.9" ry="6.8"/><ellipse transform="matrix(.1521 -.9884 .9884 .1521 -96.7245 123.7665)" cx="23.8" cy="118.3" rx="4.9" ry="2.6" class="H I"/></g><circle cx="137" cy="136.2" r="91.3" class="J"/><defs><circle id="A" cx="137" cy="136.2" r="91.3"/><path id="B" d="M102.3 21s10 14.6 8 29.2l12.7-2.9s-8.8-23.6-4-30.4c.1 0-12.2.3-16.7 4.1z"/><path id="C" d="M155.9 255.8s2.7-17.5-5.5-29.8l12.7-2.9s2.3 25 9.6 29.1c0 .1-11.1 5.2-16.8 3.6z"/><path id="D" d="M22 171.7s14.6-10 29.2-8L48.3 151s-23.6 8.8-30.4 4c0-.1.3 12.2 4.1 16.7z"/><path id="E" d="M256.8 118.1s-17.5-2.7-29.8 5.5l-2.9-12.7s25-2.3 29.1-9.6c.1 0 5.2 11.1 3.6 16.8z"/><path id="F" d="M80.7 243s3.3-17.4 15-26.3l-11-6.9S74.2 232.7 66 234.1c0 0 8.8 8.5 14.7 8.9z"/><path id="G" d="M208.9 39.1S194.6 49.6 191.7 64l-11-6.9s16.1-19.3 13.8-27.4c-.1 0 11.4 4.3 14.4 9.4z"/><path id="H" d="M244 193.3s-17.4-3.3-26.3-15l-6.9 11s22.9 10.5 24.3 18.7c0 0 8.5-8.8 8.9-14.7z"/><path id="I" d="M40.1 65.1S50.6 79.4 65 82.3l-6.9 11S38.8 77.2 30.7 79.5c0 .1 4.3-11.4 9.4-14.4z"/><path id="J" d="M204.8 224.4s-12.8-8.9-15.7-21.5l-9.5 6.4s14.6 16.6 12.8 23.7c-.1 0 9.9-4.1 12.4-8.6z"/><path id="K" d="M147.6 31.1s3 15.3-3.6 26.3l11.3 2s1-22.1 7.3-25.9c-.1.1-10.1-3.9-15-2.4z"/><path id="L" d="M78.5 44.3S80.8 54.8 88 60l-6.6 4.4S74.7 50.7 69.7 50c.1 0 5.3-5.3 8.8-5.7z"/><path id="M" d="M48.4 198.6s10-3.9 14-11.9l5.4 5.8s-12.5 8.8-12.4 13.8c0 .1-6-4.2-7-7.7z"/><path id="N" d="M229.8 78.3s-10.4 2.7-15.3 10.2l-4.7-6.4s13.4-7.3 13.9-12.3c.1-.1 5.6 4.9 6.1 8.5z"/><path id="O" d="M116.5 242.1s5.3-9.4 3.3-18.1l7.8 1.1s-4.1 14.7-.8 18.6c0 0-7.4.5-10.3-1.6z"/><path id="P" d="M244.2 160.1s-9.1-5.8-17.9-4.3l1.5-7.8s14.5 4.9 18.5 1.8c0 .1.1 7.5-2.1 10.3z"/><path id="Q" d="M29.9 123s15.2-3.4 26.4 2.9l1.7-11.3s-22.1-.5-26.1-6.6c0 0-3.7 10.1-2 15z"/></defs><use xlink:href="#A" class="J"/><clipPath id="R"><use xlink:href="#A"/></clipPath><g class="J H"><circle cx="153.7" cy="116.5" r="82.7" opacity=".48" clip-path="url(#R)"/><ellipse transform="matrix(.2949 -.9555 .9555 .2949 .8814 209.993)" cx="142.7" cy="104.4" rx="43.7" ry="54.7" class="I"/><circle cx="142.2" cy="77.6" r="11.2" class="L"/><circle cx="91.5" cy="165.3" r="20.8" class="L"/><circle cx="159.3" cy="199.1" r="7.8" class="L"/><circle cx="98.4" cy="83.1" r="3.4" class="L"/><circle cx="169.4" cy="135" r="16.4" class="L"/><circle cx="113.1" cy="116.9" r="10.3" class="L"/><circle cx="182.5" cy="95.7" r="10.3" class="L"/><circle cx="190.7" cy="174.3" r="6" class="L"/><circle cx="62.9" cy="132.8" r="6" class="L"/><ellipse transform="matrix(.2949 -.9555 .9555 .2949 11.2641 202.7576)" cx="143" cy="93.7" rx="21.7" ry="27.2" opacity=".34"/></g></svg>

<?xml version="1.0" encoding="utf-8"?>
<!-- Generator: Adobe Illustrator 21.0.0, SVG Export Plug-In . SVG Version: 6.00 Build 0)  -->
<svg version="1.1" id="Layer_1" xmlns="http://www.w3.org/2000/svg" xmlns:xlink="http://www.w3.org/1999/xlink" x="0px" y="0px"
	 viewBox="0 0 276 276" style="enable-background:new 0 0 276 276;" xml:space="preserve">
<style type="text/css">
	.st0{opacity:0.8;}
	.st1{fill:#B4B4B4;}
	.st2{opacity:0.41;fill:#B4B4B4;enable-background:new    ;}
	.st3{opacity:0.4;fill:#B4B4B4;enable-background:new    ;}
	.st4{opacity:0.48;clip-path:url(#SVGID_2_);fill:#B4B4B4;enable-background:new    ;}
	.st5{opacity:0.57;fill:#B4B4B4;enable-background:new    ;}
	.st6{opacity:0.34;fill:#B4B4B4;enable-background:new    ;}
</style>
<g>
	<g class="st0">
		<path class="st1" d="M102.3,21c0,0,10,14.6,8,29.2l12.7-2.9c0,0-8.8-23.6-4-30.4C119.1,16.9,106.8,17.2,102.3,21z"/>
		<path class="st2" d="M102.3,21c0,0,10,14.6,8,29.2l12.7-2.9c0,0-8.8-23.6-4-30.4C119.1,16.9,106.8,17.2,102.3,21z"/>
		<ellipse transform="matrix(0.975 -0.2224 0.2224 0.975 -0.4126 24.7294)" class="st1" cx="109.6" cy="14.2" rx="14.6" ry="7.7"/>
		<ellipse transform="matrix(0.975 -0.2223 0.2223 0.975 -0.1821 23.591)" class="st3" cx="104.7" cy="12.6" rx="5.5" ry="2.9"/>
	</g>
	<g class="st0">
		<path class="st1" d="M155.9,255.8c0,0,2.7-17.5-5.5-29.8l12.7-2.9c0,0,2.3,25,9.6,29.1C172.7,252.3,161.6,257.4,155.9,255.8z"/>
		<path class="st2" d="M155.9,255.8c0,0,2.7-17.5-5.5-29.8l12.7-2.9c0,0,2.3,25,9.6,29.1C172.7,252.3,161.6,257.4,155.9,255.8z"/>
		
			<ellipse transform="matrix(0.975 -0.2224 0.2224 0.975 -53.4111 43.2691)" class="st1" cx="165.4" cy="258.8" rx="14.6" ry="7.7"/>
		<ellipse transform="matrix(0.975 -0.2223 0.2223 0.975 -54.2864 42.5099)" class="st3" cx="161.7" cy="262.4" rx="5.5" ry="2.9"/>
	</g>
	<g class="st0">
		<path class="st1" d="M22,171.7c0,0,14.6-10,29.2-8L48.3,151c0,0-23.6,8.8-30.4,4C17.9,154.9,18.2,167.2,22,171.7z"/>
		<path class="st2" d="M22,171.7c0,0,14.6-10,29.2-8L48.3,151c0,0-23.6,8.8-30.4,4C17.9,154.9,18.2,167.2,22,171.7z"/>
		<ellipse transform="matrix(0.975 -0.2224 0.2224 0.975 -36.1786 7.5053)" class="st1" cx="15.2" cy="164.4" rx="7.7" ry="14.6"/>
		<ellipse transform="matrix(0.975 -0.2224 0.2224 0.975 -37.3075 7.26)" class="st3" cx="13.6" cy="169.3" rx="2.9" ry="5.5"/>
	</g>
	<g class="st0">
		<path class="st1" d="M256.8,118.1c0,0-17.5-2.7-29.8,5.5l-2.9-12.7c0,0,25-2.3,29.1-9.6C253.3,101.3,258.4,112.4,256.8,118.1z"/>
		<path class="st2" d="M256.8,118.1c0,0-17.5-2.7-29.8,5.5l-2.9-12.7c0,0,25-2.3,29.1-9.6C253.3,101.3,258.4,112.4,256.8,118.1z"/>
		<ellipse transform="matrix(0.975 -0.2224 0.2224 0.975 -17.643 60.4854)" class="st1" cx="259.8" cy="108.6" rx="7.7" ry="14.6"/>
		<ellipse transform="matrix(0.975 -0.2223 0.2223 0.975 -18.3792 61.3535)" class="st3" cx="263.4" cy="112.3" rx="2.9" ry="5.5"/>
	</g>
	<g class="st0">
		<path class="st1" d="M80.7,243c0,0,3.3-17.4,15-26.3l-11-6.9c0,0-10.5,22.9-18.7,24.3C66,234.1,74.8,242.6,80.7,243z"/>
		<path class="st2" d="M80.7,243c0,0,3.3-17.4,15-26.3l-11-6.9c0,0-10.5,22.9-18.7,24.3C66,234.1,74.8,242.6,80.7,243z"/>
		
			<ellipse transform="matrix(0.5322 -0.8466 0.8466 0.5322 -172.3493 173.3907)" class="st1" cx="70.7" cy="242.7" rx="7.7" ry="14.6"/>
		
			<ellipse transform="matrix(0.5322 -0.8466 0.8466 0.5322 -175.2131 177.5426)" class="st3" cx="73.1" cy="247.3" rx="2.9" ry="5.5"/>
	</g>
	<g class="st0">
		<path class="st1" d="M208.9,39.1c0,0-14.3,10.5-17.2,24.9l-11-6.9c0,0,16.1-19.3,13.8-27.4C194.4,29.7,205.9,34,208.9,39.1z"/>
		<path class="st2" d="M208.9,39.1c0,0-14.3,10.5-17.2,24.9l-11-6.9c0,0,16.1-19.3,13.8-27.4C194.4,29.7,205.9,34,208.9,39.1z"/>
		
			<ellipse transform="matrix(0.5322 -0.8466 0.8466 0.5322 69.8653 187.1438)" class="st1" cx="204.3" cy="30.4" rx="7.7" ry="14.6"/>
		<ellipse transform="matrix(0.5322 -0.8466 0.8466 0.5322 72.233 191.5493)" class="st3" cx="209.5" cy="30.4" rx="2.9" ry="5.5"/>
	</g>
	<g class="st0">
		<path class="st1" d="M244,193.3c0,0-17.4-3.3-26.3-15l-6.9,11c0,0,22.9,10.5,24.3,18.7C235.1,208,243.6,199.2,244,193.3z"/>
		<path class="st2" d="M244,193.3c0,0-17.4-3.3-26.3-15l-6.9,11c0,0,22.9,10.5,24.3,18.7C235.1,208,243.6,199.2,244,193.3z"/>
		
			<ellipse transform="matrix(0.5322 -0.8466 0.8466 0.5322 -58.0872 301.4223)" class="st1" cx="243.7" cy="203.3" rx="14.6" ry="7.7"/>
		
			<ellipse transform="matrix(0.5322 -0.8466 0.8466 0.5322 -53.9252 304.2357)" class="st3" cx="248.3" cy="200.9" rx="5.5" ry="2.9"/>
	</g>
	<g class="st0">
		<path class="st1" d="M40.1,65.1c0,0,10.5,14.3,24.9,17.2l-6.9,11c0,0-19.3-16.1-27.4-13.8C30.7,79.6,35,68.1,40.1,65.1z"/>
		<path class="st2" d="M40.1,65.1c0,0,10.5,14.3,24.9,17.2l-6.9,11c0,0-19.3-16.1-27.4-13.8C30.7,79.6,35,68.1,40.1,65.1z"/>
		<ellipse transform="matrix(0.5322 -0.8466 0.8466 0.5322 -44.3896 59.099)" class="st1" cx="31.3" cy="69.7" rx="14.6" ry="7.7"/>
		<ellipse transform="matrix(0.5322 -0.8466 0.8466 0.5322 -39.9798 56.7676)" class="st3" cx="31.4" cy="64.6" rx="5.5" ry="2.9"/>
	</g>
	<g class="st0">
		<path class="st1" d="M204.8,224.4c0,0-12.8-8.9-15.7-21.5l-9.5,6.4c0,0,14.6,16.6,12.8,23.7C192.3,233,202.3,228.9,204.8,224.4z"
			/>
		<path class="st2" d="M204.8,224.4c0,0-12.8-8.9-15.7-21.5l-9.5,6.4c0,0,14.6,16.6,12.8,23.7C192.3,233,202.3,228.9,204.8,224.4z"
			/>
		
			<ellipse transform="matrix(0.8316 -0.5553 0.5553 0.8316 -95.1275 150.7261)" class="st1" cx="201" cy="232.2" rx="12.9" ry="6.8"/>
		
			<ellipse transform="matrix(0.8316 -0.5553 0.5553 0.8316 -94.2756 153.1952)" class="st3" cx="205.5" cy="232.1" rx="4.9" ry="2.6"/>
	</g>
	<g class="st0">
		<path class="st1" d="M147.6,31.1c0,0,3,15.3-3.6,26.3l11.3,2c0,0,1-22.1,7.3-25.9C162.5,33.6,152.5,29.6,147.6,31.1z"/>
		<path class="st2" d="M147.6,31.1c0,0,3,15.3-3.6,26.3l11.3,2c0,0,1-22.1,7.3-25.9C162.5,33.6,152.5,29.6,147.6,31.1z"/>
		
			<ellipse transform="matrix(0.1785 -0.9839 0.9839 0.1785 100.2333 176.4478)" class="st1" cx="155.8" cy="28.2" rx="6.8" ry="12.9"/>
		
			<ellipse transform="matrix(0.1785 -0.9839 0.9839 0.1785 100.4996 170.5738)" class="st3" cx="152.4" cy="25.1" rx="2.6" ry="4.9"/>
	</g>
	<g class="st0">
		<path class="st1" d="M78.5,44.3c0,0,2.3,10.5,9.5,15.7l-6.6,4.4c0,0-6.7-13.7-11.7-14.4C69.8,50,75,44.7,78.5,44.3z"/>
		<path class="st2" d="M78.5,44.3c0,0,2.3,10.5,9.5,15.7l-6.6,4.4c0,0-6.7-13.7-11.7-14.4C69.8,50,75,44.7,78.5,44.3z"/>
		<ellipse transform="matrix(0.8316 -0.5553 0.5553 0.8316 -12.6255 47.8091)" class="st1" cx="72.5" cy="44.7" rx="8.9" ry="4.7"/>
		<ellipse transform="matrix(0.8316 -0.5553 0.5553 0.8316 -10.7898 48.0592)" class="st3" cx="73.9" cy="41.8" rx="3.4" ry="1.8"/>
	</g>
	<g class="st0">
		<path class="st1" d="M48.4,198.6c0,0,10-3.9,14-11.9l5.4,5.8c0,0-12.5,8.8-12.4,13.8C55.4,206.4,49.4,202.1,48.4,198.6z"/>
		<path class="st2" d="M48.4,198.6c0,0,10-3.9,14-11.9l5.4,5.8c0,0-12.5,8.8-12.4,13.8C55.4,206.4,49.4,202.1,48.4,198.6z"/>
		
			<ellipse transform="matrix(0.7356 -0.6774 0.6774 0.7356 -125.3883 87.7983)" class="st1" cx="49.8" cy="204.5" rx="4.7" ry="8.9"/>
		
			<ellipse transform="matrix(0.7356 -0.6774 0.6774 0.7356 -125.5508 85.4784)" class="st3" cx="46.7" cy="203.6" rx="1.8" ry="3.4"/>
	</g>
	<g class="st0">
		<path class="st1" d="M229.8,78.3c0,0-10.4,2.7-15.3,10.2l-4.7-6.4c0,0,13.4-7.3,13.9-12.3C223.8,69.7,229.3,74.7,229.8,78.3z"/>
		<path class="st2" d="M229.8,78.3c0,0-10.4,2.7-15.3,10.2l-4.7-6.4c0,0,13.4-7.3,13.9-12.3C223.8,69.7,229.3,74.7,229.8,78.3z"/>
		<ellipse transform="matrix(0.8079 -0.5893 0.5893 0.8079 1.4485 148.923)" class="st1" cx="229.2" cy="72.2" rx="4.7" ry="8.9"/>
		<ellipse transform="matrix(0.8079 -0.5893 0.5893 0.8079 1.2877 150.8609)" class="st3" cx="232.1" cy="73.5" rx="1.8" ry="3.4"/>
	</g>
	<g class="st0">
		<path class="st1" d="M116.5,242.1c0,0,5.3-9.4,3.3-18.1l7.8,1.1c0,0-4.1,14.7-0.8,18.6C126.8,243.7,119.4,244.2,116.5,242.1z"/>
		<path class="st2" d="M116.5,242.1c0,0,5.3-9.4,3.3-18.1l7.8,1.1c0,0-4.1,14.7-0.8,18.6C126.8,243.7,119.4,244.2,116.5,242.1z"/>
		
			<ellipse transform="matrix(0.1381 -0.9904 0.9904 0.1381 -138.9049 331.9862)" class="st1" cx="121.3" cy="245.8" rx="4.7" ry="8.9"/>
		
			<ellipse transform="matrix(0.1381 -0.9904 0.9904 0.1381 -142.5834 330.1542)" class="st3" cx="118.4" cy="247" rx="1.8" ry="3.4"/>
	</g>
	<g class="st0">
		<path class="st1" d="M244.2,160.1c0,0-9.1-5.8-17.9-4.3l1.5-7.8c0,0,14.5,4.9,18.5,1.8C246.3,149.9,246.4,157.3,244.2,160.1z"/>
		<path class="st2" d="M244.2,160.1c0,0-9.1-5.8-17.9-4.3l1.5-7.8c0,0,14.5,4.9,18.5,1.8C246.3,149.9,246.4,157.3,244.2,160.1z"/>
		
			<ellipse transform="matrix(0.1909 -0.9816 0.9816 0.1909 48.0173 369.4793)" class="st1" cx="248.1" cy="155.6" rx="8.9" ry="4.7"/>
		
			<ellipse transform="matrix(0.1909 -0.9816 0.9816 0.1909 45.9886 372.8711)" class="st3" cx="249.2" cy="158.5" rx="3.4" ry="1.8"/>
	</g>
	<g class="st0">
		<path class="st1" d="M29.9,123c0,0,15.2-3.4,26.4,2.9l1.7-11.3c0,0-22.1-0.5-26.1-6.6C31.9,108,28.2,118.1,29.9,123z"/>
		<path class="st2" d="M29.9,123c0,0,15.2-3.4,26.4,2.9l1.7-11.3c0,0-22.1-0.5-26.1-6.6C31.9,108,28.2,118.1,29.9,123z"/>
		
			<ellipse transform="matrix(0.1521 -0.9884 0.9884 0.1521 -90.8349 123.6983)" class="st1" cx="26.7" cy="114.8" rx="12.9" ry="6.8"/>
		
			<ellipse transform="matrix(0.1521 -0.9884 0.9884 0.1521 -96.7245 123.7665)" class="st3" cx="23.8" cy="118.3" rx="4.9" ry="2.6"/>
	</g>
	<g>
		<g>
			<circle id="XMLID_3_" class="st1" cx="137" cy="136.2" r="91.3"/>
		</g>
		<g>
			<defs>
				<circle id="SVGID_1_" cx="137" cy="136.2" r="91.3"/>
			</defs>
			<use xlink:href="#SVGID_1_"  style="overflow:visible;fill:#B4B4B4;"/>
			<clipPath id="SVGID_2_">
				<use xlink:href="#SVGID_1_"  style="overflow:visible;"/>
			</clipPath>
			<circle class="st4" cx="153.7" cy="116.5" r="82.7"/>
		</g>
	</g>
	
		<ellipse transform="matrix(0.2949 -0.9555 0.9555 0.2949 0.8814 209.993)" class="st3" cx="142.7" cy="104.4" rx="43.7" ry="54.7"/>
	<g>
		<circle class="st5" cx="142.2" cy="77.6" r="11.2"/>
		<g>
			<circle class="st5" cx="91.5" cy="165.3" r="20.8"/>
			<circle class="st5" cx="159.3" cy="199.1" r="7.8"/>
			<circle class="st5" cx="98.4" cy="83.1" r="3.4"/>
			<circle class="st5" cx="169.4" cy="135" r="16.4"/>
			<circle class="st5" cx="113.1" cy="116.9" r="10.3"/>
			<circle class="st5" cx="182.5" cy="95.7" r="10.3"/>
			<circle class="st5" cx="190.7" cy="174.3" r="6"/>
			<circle class="st5" cx="62.9" cy="132.8" r="6"/>
		</g>
	</g>
	<ellipse transform="matrix(0.2949 -0.9555 0.9555 0.2949 11.2641 202.7576)" class="st6" cx="143" cy="93.7" rx="21.7" ry="27.2"/>
</g>
</svg>
